google-downasaur.svg

<svg fill="currentColor" viewBox="0 0 24 24"><path d="M13 2v1h-1v6h-1v1H9v1H8v1H7v1H5v-1H4v-1H3V9H2v6h1v1h1v1h1v1h1v4h2v-1H7v-1h1v-1h1v-1h1v1h1v3h2v-1h-1v-4h1v-1h1v-1h1v-3h1v1h1v-2h-2V9h5V8h-3V7h5V3h-1V2m-7 1h1v1h-1Z"/></svg>

<svg  viewBox="0 0 24 24" fill="currentColor"><path  d="M13 2V3H12V9H11V10H9V11H8V12H7V13H5V12H4V11H3V9H2V15H3V16H4V17H5V18H6V22H8V21H7V20H8V19H9V18H10V19H11V22H13V21H12V17H13V16H14V15H15V12H16V13H17V11H15V9H20V8H17V7H22V3H21V2M14 3H15V4H14Z"/></svg>
